!!!!SEGMENT: pl-kk--kk-i-174_anonim--haec-dies-quam-fecit-dominus.krn
!!!cenid: 17xx:2166
!!!COM: Anonim
!!!COM-rismid: pe30004985
!!!CDT:
!!!CNT:
!!!OTL: Haec dies quam fecit Dominus
!!!PDT:
!!!AGN: Sacred
!!!SMS-siglum: PL-Kk
!!!SMS-shelfmark: Kk.I.174
!!!SMS-shelfwork: W
!!!SMS-variant:
!!!SMS-altvar:
!!!NIFC-rismid: 1001147331
!!!URL-scan: http://repozytorium.nifc.pl/skany/pl-kk-nut--i-174
!!!ONB-nifc: UWAGA: tylko C i A, brak pozostałych głosów
!!!key:
**kern	**kern	**kern	**kern	**kern	**kern	**text	**kern	**text	**kern	**kern
*part9	*part8	*part7	*part6	*part5	*part4	*part4	*part3	*part3	*part2	*part1
*staff9	*staff8	*staff7	*staff6	*staff5	*staff4	*staff4	*staff3	*staff3	*staff2	*staff1
*	*group1	*group1	*group2	*group2	*group2	*	*group2	*	*group3	*group3
*>[A,B,B]	*[A,B,B]	*[A,B,B]	*[A,B,B]	*[A,B,B]	*[A,B,B]	*	*[A,B,B]	*	*[A,B,B]	*[A,B,B]
*>A	*>A	*>A	*>A	*>A	*>A	*	*>A	*	*>A	*
*Iempty	*Ivioln	*Ivioln	*Iempty	*Itenor	*Ialto	*	*Ivox	*	*Ituba	*Ituba
*I"Fundamento	*I"[Violino 2do]	*I"[Violino 1mo]	*I"Baſso.	*I"Tenore.	*I"Alto.	*	*I"Canto.	*	*I"[Tuba 2do]	*I"[Tuba 1mo]
*I'org	*I'vl 2	*I'vl 1	*I'B	*I'T	*I'A	*	*I'S	*	*I'tb 2	*I'tb 1
*clefF4	*clefG2	*clefG2	*clefF4	*clefC4	*clefC3	*	*clefC1	*	*clefF4	*clefF4
*k[]	*k[]	*k[]	*k[]	*k[]	*k[]	*	*k[]	*	*k[]	*k[]
*C:	*C:	*C:	*C:	*C:	*C:	*	*C:	*	*C:	*C:
*M4/4	*M4/4	*M4/4	*M4/4	*M4/4	*M4/4	*	*M4/4	*	*M4/4	*M4/4
*met(c)	*met(c)	*met(c)	*met(c)	*met(c)	*met(c)	*	*met(c)	*	*met(c)	*met(c)
=1	=1	=1	=1	=1	=1	=1	=1	=1	=1	=1
!LO:TX:t=P:problem:brak partii w źródle	!LO:TX:t=P:problem:brak partii w źródle	!LO:TX:t=P:problem:brak partii w źródle	!LO:TX:t=P:problem:brak partii w źródle	!LO:TX:t=P:problem:brak partii w źródle	!	!	!	!	!LO:TX:t=P:problem:brak partii w źródle	!LO:TX:t=P:problem:brak partii w źródle
1ryy	1ryy	1ryy	1ryy	1ryy	00r	.	00r	.	1ryy	1ryy
=2	=2	=2	=2	=2	=2	=2	=2	=2	=2	=2
1ryy	1ryy	1ryy	1ryy	1ryy	.	.	.	.	1ryy	1ryy
=3	=3	=3	=3	=3	=3	=3	=3	=3	=3	=3
1ryy	1ryy	1ryy	1ryy	1ryy	.	.	.	.	1ryy	1ryy
=4	=4	=4	=4	=4	=4	=4	=4	=4	=4	=4
1ryy	1ryy	1ryy	1ryy	1ryy	.	.	.	.	1ryy	1ryy
=5	=5	=5	=5	=5	=5	=5	=5	=5	=5	=5
1ryy	1ryy	1ryy	1ryy	1ryy	00r	.	8ra	.	1ryy	1ryy
!	!	!	!	!	!	!	!LO:TX:a:t=Solo.	!	!	!
.	.	.	.	.	.	.	8cc\	Haec	.	.
.	.	.	.	.	.	.	8ee\	di-	.	.
.	.	.	.	.	.	.	16dd\	-es	.	.
.	.	.	.	.	.	.	16cc\	quam	.	.
.	.	.	.	.	.	.	8dd\	fe-	.	.
.	.	.	.	.	.	.	8g/	-cit	.	.
.	.	.	.	.	.	.	8ra	.	.	.
.	.	.	.	.	.	.	8gg\	quam	.	.
=6	=6	=6	=6	=6	=6	=6	=6	=6	=6	=6
1ryy	1ryy	1ryy	1ryy	1ryy	.	.	(16aa\LL	fe-	1ryy	1ryy
.	.	.	.	.	.	.	16gg\J)	.	.	.
.	.	.	.	.	.	.	(16ff\L	-cit	.	.
.	.	.	.	.	.	.	16ee\JJ)	.	.	.
.	.	.	.	.	.	.	(16ff\LL	fe-	.	.
.	.	.	.	.	.	.	16ee\J)	.	.	.
.	.	.	.	.	.	.	(16dd\L	-cit	.	.
.	.	.	.	.	.	.	16cc\JJ)	.	.	.
.	.	.	.	.	.	.	8.b\	Do-	.	.
.	.	.	.	.	.	.	16cc\	-mi-	.	.
.	.	.	.	.	.	.	4dd\	-nus	.	.
=7	=7	=7	=7	=7	=7	=7	=7	=7	=7	=7
1ryy	1ryy	1ryy	1ryy	1ryy	.	.	2r	.	1ryy	1ryy
.	.	.	.	.	.	.	8ra	.	.	.
.	.	.	.	.	.	.	8cc\	Haec	.	.
.	.	.	.	.	.	.	8ee\	di-	.	.
.	.	.	.	.	.	.	16dd\	-es	.	.
.	.	.	.	.	.	.	16cc\	quam	.	.
=8	=8	=8	=8	=8	=8	=8	=8	=8	=8	=8
1ryy	1ryy	1ryy	1ryy	1ryy	.	.	8dd\	fe-	1ryy	1ryy
.	.	.	.	.	.	.	8g/	-cit	.	.
.	.	.	.	.	.	.	8r	.	.	.
.	.	.	.	.	.	.	8gg\	quam	.	.
!	!	!	!	!	!	!	!LO:LB:g=original	!	!	!
.	.	.	.	.	.	.	(16aa\LL	fe-	.	.
.	.	.	.	.	.	.	16gg\J)	.	.	.
.	.	.	.	.	.	.	(16ff\L	-cit	.	.
.	.	.	.	.	.	.	16ee\JJ)	.	.	.
.	.	.	.	.	.	.	(16ff\LL	fe-	.	.
.	.	.	.	.	.	.	16ee\J)	.	.	.
.	.	.	.	.	.	.	(16dd\L	-cit	.	.
.	.	.	.	.	.	.	16cc\JJ)	.	.	.
=9	=9	=9	=9	=9	=9	=9	=9	=9	=9	=9
1ryy	1ryy	1ryy	1ryy	1ryy	00rf	.	8.b\	Do-	1ryy	1ryy
.	.	.	.	.	.	.	16cc\	-mi-	.	.
.	.	.	.	.	.	.	16dd,<\	-nus	.	.
.	.	.	.	.	.	.	16g\LL	e-	.	.
.	.	.	.	.	.	.	16a\	.	.	.
.	.	.	.	.	.	.	16b\JJ	.	.	.
.	.	.	.	.	.	.	8cc\	.	.	.
.	.	.	.	.	.	.	8ee\	-xul-	.	.
.	.	.	.	.	.	.	8.cc\L	-te-	.	.
.	.	.	.	.	.	.	16bt\Jk	.	.	.
=10	=10	=10	=10	=10	=10	=10	=10	=10	=10	=10
1ryy	1ryy	1ryy	1ryy	1ryy	.	.	4a\	-mus	1ryy	1ryy
.	.	.	.	.	.	.	16r	.	.	.
.	.	.	.	.	.	.	16a\LL	et	.	.
.	.	.	.	.	.	.	16b\	.	.	.
.	.	.	.	.	.	.	16cc\JJ	.	.	.
.	.	.	.	.	.	.	8dd,<\	.	.	.
.	.	.	.	.	.	.	8ff\	lae-	.	.
.	.	.	.	.	.	.	8.dd\L	-te-	.	.
.	.	.	.	.	.	.	16ccT\Jk	.	.	.
=11	=11	=11	=11	=11	=11	=11	=11	=11	=11	=11
1ryy	1ryy	1ryy	1ryy	1ryy	.	.	4b\	-mur	1ryy	1ryy
.	.	.	.	.	.	.	16r	.	.	.
.	.	.	.	.	.	.	16g\LL	lae-	.	.
.	.	.	.	.	.	.	16a\	.	.	.
.	.	.	.	.	.	.	16b\JJ	.	.	.
.	.	.	.	.	.	.	16cc\LL	-te-	.	.
.	.	.	.	.	.	.	16b\	.	.	.
.	.	.	.	.	.	.	16cc\	.	.	.
.	.	.	.	.	.	.	16dd\JJ	.	.	.
.	.	.	.	.	.	.	16ee\LL	.	.	.
.	.	.	.	.	.	.	16dd\	.	.	.
.	.	.	.	.	.	.	16ee\	.	.	.
.	.	.	.	.	.	.	16ff\JJ	.	.	.
=12	=12	=12	=12	=12	=12	=12	=12	=12	=12	=12
1ryy	1ryy	1ryy	1ryy	1ryy	.	.	16gg\LL	.	1ryy	1ryy
.	.	.	.	.	.	.	16cc\JJ	.	.	.
.	.	.	.	.	.	.	16dd\	-mur	.	.
.	.	.	.	.	.	.	16a\	in	.	.
.	.	.	.	.	.	.	4bt\	e-	.	.
!	!	!	!	!	!	!	!LO:LB:g=original	!	!	!
.	.	.	.	.	.	.	4cc\	-a	.	.
.	.	.	.	.	.	.	16ra	.	.	.
.	.	.	.	.	.	.	16g\LL	lae-	.	.
.	.	.	.	.	.	.	16a\	.	.	.
.	.	.	.	.	.	.	16b\JJ	.	.	.
=13	=13	=13	=13	=13	=13	=13	=13	=13	=13	=13
1ryy	1ryy	1ryy	1ryy	1ryy	00rf	.	16cc\LL	-te-	1ryy	1ryy
.	.	.	.	.	.	.	16b\	.	.	.
.	.	.	.	.	.	.	16cc\	.	.	.
.	.	.	.	.	.	.	16dd\JJ	.	.	.
.	.	.	.	.	.	.	16ee\LL	.	.	.
.	.	.	.	.	.	.	16dd\	.	.	.
.	.	.	.	.	.	.	16ee\	.	.	.
.	.	.	.	.	.	.	16ff\JJ	.	.	.
.	.	.	.	.	.	.	16gg\LL	.	.	.
.	.	.	.	.	.	.	16cc\JJ	.	.	.
.	.	.	.	.	.	.	16dd\	-mur	.	.
.	.	.	.	.	.	.	16a\	in	.	.
.	.	.	.	.	.	.	4bt\	e-	.	.
=14	=14	=14	=14	=14	=14	=14	=14	=14	=14	=14
1ryy	1ryy	1ryy	1ryy	1ryy	.	.	4cc\	-a.	1ryy	1ryy
.	.	.	.	.	.	.	4r	.	.	.
.	.	.	.	.	.	.	2r	.	.	.
=15	=15	=15	=15	=15	=15	=15	=15	=15	=15	=15
1ryy	1ryy	1ryy	1ryy	1ryy	.	.	00r	.	1ryy	1ryy
=16	=16	=16	=16	=16	=16	=16	=16	=16	=16	=16
1ryy	1ryy	1ryy	1ryy	1ryy	.	.	.	.	1ryy	1ryy
=17	=17	=17	=17	=17	=17	=17	=17	=17	=17	=17
1ryy	1ryy	1ryy	1ryy	1ryy	0r	.	.	.	1ryy	1ryy
=18	=18	=18	=18	=18	=18	=18	=18	=18	=18	=18
1ryy	1ryy	1ryy	1ryy	1ryy	.	.	.	.	1ryy	1ryy
=19	=19	=19	=19	=19	=19	=19	=19	=19	=19	=19
!	!	!	!	!	!LO:TX:a:t=T.	!	!	!	!	!
1ryy	1ryy	1ryy	1ryy	1ryy	2r	.	2r	.	1ryy	1ryy
.	.	.	.	.	8re	.	8ra	.	.	.
.	.	.	.	.	8g\	Haec	8ee\	Haec	.	.
.	.	.	.	.	4g\	Di-	8gg\L	di-	.	.
.	.	.	.	.	.	.	8ff\J	.	.	.
=20	=20	=20	=20	=20	=20	=20	=20	=20	=20	=20
1ryy	1ryy	1ryy	1ryy	1ryy	4g\	-es	4ee\	-es	1ryy	1ryy
.	.	.	.	.	4re	.	8rcc	.	.	.
.	.	.	.	.	.	.	8dd\	quam	.	.
.	.	.	.	.	2r	.	8ee\	fe-	.	.
.	.	.	.	.	.	.	8dd\	-cit	.	.
.	.	.	.	.	.	.	8.cc\	Do-	.	.
.	.	.	.	.	.	.	16cc\	-mi-	.	.
=21	=21	=21	=21	=21	=21	=21	=21	=21	=21	=21
1ryy	1ryy	1ryy	1ryy	1ryy	4re	.	4b\	-nus	1ryy	1ryy
.	.	.	.	.	8re	.	8ra	.	.	.
!	!	!	!	!	!	!	!LO:SIC:v:t=custos cc	!	!	!
.	.	.	.	.	8g\	quam	8cc\	quam	.	.
!	!	!	!	!	!	!	!LO:LB:g=original	!	!	!
.	.	.	.	.	8a\	fe-	8cc\	fe-	.	.
.	.	.	.	.	8g\	-cit	8cc\	-cit	.	.
.	.	.	.	.	8.f\	Do-	8.b\	Do-	.	.
.	.	.	.	.	16f\	-mi-	16b\	-mi-	.	.
=22	=22	=22	=22	=22	=22	=22	=22	=22	=22	=22
1ryy	1ryy	1ryy	1ryy	1ryy	4e\	-nus	4cc\	-nus	1ryy	1ryy
.	.	.	.	.	4r	.	4r	.	.	.
.	.	.	.	.	2r	.	2r	.	.	.
=23	=23	=23	=23	=23	=23	=23	=23	=23	=23	=23
1ryy	1ryy	1ryy	1ryy	1ryy	8r	.	8rcc	.	1ryy	1ryy
.	.	.	.	.	8g\	quam	8ee\	quam	.	.
.	.	.	.	.	8g\	fe-	8gg\	fe-	.	.
.	.	.	.	.	8g\	-cit	8ee\	-cit	.	.
.	.	.	.	.	8r	.	8rcc	.	.	.
*	*	*	*	*	*	*ij	*	*ij	*	*
.	.	.	.	.	8f\	quam	8dd\	quam	.	.
.	.	.	.	.	8f\	fe-	8ff\	fe-	.	.
.	.	.	.	.	8f\	-cit	8dd\	-cit	.	.
*	*	*	*	*	*	*Xij	*	*Xij	*	*
!	!	!	!	!	!LO:LB:g=original	!	!	!	!	!
=24	=24	=24	=24	=24	=24	=24	=24	=24	=24	=24
1ryy	1ryy	1ryy	1ryy	1ryy	8rg	.	8rcc	.	1ryy	1ryy
.	.	.	.	.	8g\	quam	8ee\	quam	.	.
.	.	.	.	.	8a\	fe-	8cc\	fe-	.	.
.	.	.	.	.	8g\	-cit	8b\	-cit	.	.
.	.	.	.	.	8.g\	Do-	8.cc\	Do-	.	.
.	.	.	.	.	16f\	mi-	16b\	mi-	.	.
.	.	.	.	.	8e\	-nus	8cc,<\	-nus	.	.
*	*	*	*	*	*	*	*	*ij	*	*
.	.	.	.	.	8g\	quam	8ee\	quam	.	.
=25	=25	=25	=25	=25	=25	=25	=25	=25	=25	=25
1ryy	1ryy	1ryy	1ryy	1ryy	8e\	fe-	8cc\	fe-	1ryy	1ryy
.	.	.	.	.	8a\	-cit	8dd\	-cit	.	.
.	.	.	.	.	8.g\	Do-	8.b\	Do-	.	.
.	.	.	.	.	16g\	-mi-	16b\	-mi-	.	.
.	.	.	.	.	4g\	-nus	4cc,<\	-nus	.	.
*	*	*	*	*	*	*	*	*Xij	*	*
.	.	.	.	.	4r	.	(16cc\LL	ex-	.	.
.	.	.	.	.	.	.	16b\J)	.	.	.
.	.	.	.	.	.	.	(16cc\L	-ul-	.	.
!	!	!	!	!	!	!	!LO:SIC:v:t=custos a	!	!	!
.	.	.	.	.	.	.	16b\JJ)	.	.	.
!	!	!	!	!	!	!	!LO:LB:g=original	!	!	!
=26	=26	=26	=26	=26	=26	=26	=26	=26	=26	=26
1ryy	1ryy	1ryy	1ryy	1ryy	(16f\LL	ex-	8a\	-te-	1ryy	1ryy
.	.	.	.	.	16e\J)	.	.	.	.	.
.	.	.	.	.	(16f\L\	-ul-	8a\	-mus	.	.
.	.	.	.	.	16e\JJ)	.	.	.	.	.
.	.	.	.	.	8d\	-te-	(16dd\LL	et	.	.
.	.	.	.	.	.	.	16cc\J)	.	.	.
.	.	.	.	.	8d\	-mus	(16dd\L	lae-	.	.
.	.	.	.	.	.	.	16cc\JJ)	.	.	.
.	.	.	.	.	(16g\LL	et	8b\	-te-	.	.
.	.	.	.	.	16f\J)	.	.	.	.	.
.	.	.	.	.	(16g\L	lae-	8b\	-mur	.	.
.	.	.	.	.	16f\JJ)	.	.	.	.	.
.	.	.	.	.	8g\	-te-	(16ee\LL	ex-	.	.
.	.	.	.	.	.	.	16dd\J)	.	.	.
.	.	.	.	.	8g\	-mur	(16ee\L	-ul-	.	.
.	.	.	.	.	.	.	16dd\JJ)	.	.	.
=27	=27	=27	=27	=27	=27	=27	=27	=27	=27	=27
1ryy	1ryy	1ryy	1ryy	1ryy	(16a\LL	ex-	8cc\	-te-	1ryy	1ryy
.	.	.	.	.	16g\J)	.	.	.	.	.
.	.	.	.	.	(16a\L	-ul-	8cc\	-mus	.	.
.	.	.	.	.	16g\JJ)	.	.	.	.	.
.	.	.	.	.	8f\	-te-	(16ff\LL	et	.	.
.	.	.	.	.	.	.	16ee\J)	.	.	.
.	.	.	.	.	8a\	-mus	(16ff\L	lae-	.	.
.	.	.	.	.	.	.	16ee\JJ)	.	.	.
!	!	!	!	!	!LO:LB:g=original	!	!	!	!	!
.	.	.	.	.	8g\	et	8dd\	-te-	.	.
.	.	.	.	.	8g\	lae-	8dd,<\	-mur,	.	.
.	.	.	.	.	8g\	-te-	(16gg\LL	ex-	.	.
.	.	.	.	.	.	.	16ff\J)	.	.	.
.	.	.	.	.	8g\	-mur	(16gg\L	-ul-	.	.
.	.	.	.	.	.	.	16ff\JJ)	.	.	.
=28	=28	=28	=28	=28	=28	=28	=28	=28	=28	=28
*	*	*	*	*	*	*ij	*	*	*	*
1ryy	1ryy	1ryy	1ryy	1ryy	8a\	et	8ee\	-te-	1ryy	1ryy
.	.	.	.	.	8a\	lae-	8ee\	-mus	.	.
.	.	.	.	.	8a\	-te-	8ff\	et	.	.
.	.	.	.	.	16a,<\	-mur	8ff\	lae-	.	.
*	*	*	*	*	*	*Xij	*	*	*	*
.	.	.	.	.	16a\	lae-	.	.	.	.
.	.	.	.	.	8g\	-te-	8ee\	-te-	.	.
.	.	.	.	.	16a\	-mur	16ff\	-mur	.	.
.	.	.	.	.	16a\	in	16ee\	in	.	.
.	.	.	.	.	8g\	e-	8dd\	e-	.	.
!	!	!	!	!	!	!	!LO:SIC:v:t=custos b	!	!	!
.	.	.	.	.	8g\	-a	8dd\	-a	.	.
!	!	!	!	!	!	!	!LO:LB:g=original	!	!	!
=29	=29	=29	=29	=29	=29	=29	=29	=29	=29	=29
1ryy	1ryy	1ryy	1ryy	1ryy	(16g\LL	ex-	16b\LL	ex-	1ryy	1ryy
.	.	.	.	.	16f#X\J)	.	16a\J	.	.	.
.	.	.	.	.	(16g\L	-ul-	16b\L	-ul-	.	.
.	.	.	.	.	16f#X\JJ)	.	16a\JJ	.	.	.
.	.	.	.	.	8e\	-te-	8g\	-te-	.	.
.	.	.	.	.	8e\	-mus	8g\	-mus	.	.
.	.	.	.	.	(16a\LL	et	(16cc\LL	et	.	.
.	.	.	.	.	16g\J)	.	16b\J)	.	.	.
.	.	.	.	.	(16a\L	lae-	(16cc\L	lae-	.	.
.	.	.	.	.	16g\JJ)	.	16b\JJ)	.	.	.
.	.	.	.	.	8f#X\	-te-	8a\	-te-	.	.
.	.	.	.	.	8f#\	-mur	8a\	-mur	.	.
=30	=30	=30	=30	=30	=30	=30	=30	=30	=30	=30
1ryy	1ryy	1ryy	1ryy	1ryy	8g\	ex-	(16dd\LL	ex-	1ryy	1ryy
.	.	.	.	.	.	.	16cc\J)	.	.	.
!	!	!	!	!	!LO:SIC:v:t=custos g	!	!	!	!	!
.	.	.	.	.	8g\	-ul-	(16dd\L	-ul-	.	.
.	.	.	.	.	.	.	16cc\JJ)	.	.	.
!	!	!	!	!	!LO:LB:g=original	!	!	!	!	!
.	.	.	.	.	(16g\LL	-te-	8b\	-te-	.	.
.	.	.	.	.	16fn\	.	.	.	.	.
.	.	.	.	.	16g\	.	8b\	-mus	.	.
.	.	.	.	.	16f\JJ)	.	.	.	.	.
.	.	.	.	.	8e\	.	(16ee\LL	et	.	.
.	.	.	.	.	.	.	16dd\J)	.	.	.
.	.	.	.	.	8e\	-mus	(16ee\L	lae-	.	.
.	.	.	.	.	.	.	16dd\JJ)	.	.	.
.	.	.	.	.	(16a\LL	et	8cc\	-te-	.	.
.	.	.	.	.	16g\)	.	.	.	.	.
.	.	.	.	.	(16a\	lae-	16cc\	-mur	.	.
.	.	.	.	.	16g\JJ)	.	16cc\	in	.	.
=31	=31	=31	=31	=31	=31	=31	=31	=31	=31	=31
1ryy	1ryy	1ryy	1ryy	1ryy	8a\	-te-	8ff\	e-	1ryy	1ryy
.	.	.	.	.	8a\	-mur	8ff\	-a	.	.
.	.	.	.	.	8rg	.	8rcc	.	.	.
.	.	.	.	.	8a\	lae-	8ff\	lae-	.	.
.	.	.	.	.	8g\	-te-	8dd\	-te-	.	.
.	.	.	.	.	8g\	-mur	8b\	-mur	.	.
.	.	.	.	.	8rg	.	8rcc	.	.	.
*	*	*	*	*	*	*ij	*	*ij	*	*
.	.	.	.	.	8g\	lae-	8ee\	lae-	.	.
=32	=32	=32	=32	=32	=32	=32	=32	=32	=32	=32
1ryy	1ryy	1ryy	1ryy	1ryy	8a\	-te-	8cc\	-te-	1ryy	1ryy
.	.	.	.	.	16a,<\	-mur	16a\	-mur	.	.
*	*	*	*	*	*	*Xij	*	*Xij	*	*
.	.	.	.	.	16a\	in	16ff\	in	.	.
.	.	.	.	.	4g\	e-	4dd\	e-	.	.
.	.	.	.	.	8e,<\	-a	4cc\	-a.	.	.
!	!	!	!	!	!LO:TX:t=P:problem:znak powtórzenia z czterema kropkami	!	!	!	!	!
!	!	!	!	!	!LO:TX:a:t=T. to.	!	!	!	!	!
*>B	*>B	*>B	*>B	*>B	*>B	*	*>B	*	*>B	*>B
.	.	.	.	.	8g\	Al-	.	.	.	.
!	!	!	!	!	!	!	!LO:TX:b:t=Citiſsime	!	!	!
.	.	.	.	.	8g\	-le-	4r	.	.	.
.	.	.	.	.	8g\	-lu-	.	.	.	.
!	!	!	!	!	!	!	!LO:PB:g=original	!	!	!
=33	=33	=33	=33	=33	=33	=33	=33	=33	=33	=33
!	!	!	!	!	!	!	!LO:TX:a:t=T. to S.	!	!	!
1ryy	1ryy	1ryy	1ryy	1ryy	4e\	-ia	8ra	.	1ryy	1ryy
.	.	.	.	.	.	.	8cc\	Al-	.	.
.	.	.	.	.	8re	.	8cc\	-le-	.	.
!	!	!	!	!	!LO:SIC:v:t=custos f	!	!	!	!	!
.	.	.	.	.	8c\	al-	8cc\	-lu-	.	.
!	!	!	!	!	!LO:LB:g=original	!	!	!	!	!
.	.	.	.	.	8f\L	.	4a\	-ia	.	.
.	.	.	.	.	8g\	.	.	.	.	.
.	.	.	.	.	8f\	.	8r	.	.	.
.	.	.	.	.	8e\J	.	8a\	al-	.	.
=34	=34	=34	=34	=34	=34	=34	=34	=34	=34	=34
1ryy	1ryy	1ryy	1ryy	1ryy	4d\	.	8dd\L	.	1ryy	1ryy
.	.	.	.	.	.	.	8ee\	.	.	.
.	.	.	.	.	8r	.	8dd\	.	.	.
.	.	.	.	.	8d\	.	8cc\J	.	.	.
.	.	.	.	.	8g\L	.	4b\	.	.	.
.	.	.	.	.	8a\	.	.	.	.	.
.	.	.	.	.	8g\	.	8ra	.	.	.
.	.	.	.	.	8f\J	.	8b\	.	.	.
=35	=35	=35	=35	=35	=35	=35	=35	=35	=35	=35
1ryy	1ryy	1ryy	1ryy	1ryy	4e\	.	8cc\L	.	1ryy	1ryy
.	.	.	.	.	.	.	8g\J	.	.	.
*	*	*	*	*	*	*	*2\right	*	*	*
.	.	.	.	.	8re	.	2cc\	.	.	.
.	.	.	.	.	8e\	.	.	.	.	.
.	.	.	.	.	4.d\	-le-	.	.	.	.
.	.	.	.	.	.	.	8.b\	-le-	.	.
.	.	.	.	.	8d\	-lu-	.	.	.	.
.	.	.	.	.	.	.	16b\	-lu-	.	.
=36	=36	=36	=36	=36	=36	=36	=36	=36	=36	=36
1ryy	1ryy	1ryy	1ryy	1ryy	8c,<\	-ia	8cc,<\	-ia	1ryy	1ryy
.	.	.	.	.	8g\	al-	8ee\	al-	.	.
.	.	.	.	.	8g\	-le-	8ee\	-le-	.	.
.	.	.	.	.	8g\	-lu-	8ee\	-lu-	.	.
.	.	.	.	.	8a\L	-ia	4cc\	-ia	.	.
.	.	.	.	.	8b\	.	.	.	.	.
.	.	.	.	.	8a\	.	8ra	.	.	.
.	.	.	.	.	8g\J	.	8cc\	[al-	.	.
=37	=37	=37	=37	=37	=37	=37	=37	=37	=37	=37
1ryy	1ryy	1ryy	1ryy	1ryy	4a\	.	8ff\L	.	1ryy	1ryy
.	.	.	.	.	.	.	8gg\	.	.	.
.	.	.	.	.	8rg	.	8ff\	.	.	.
.	.	.	.	.	8a\	al-	8ee\J	.	.	.
.	.	.	.	.	4g\	-le-	4dd\	.	.	.
.	.	.	.	.	4g\	-lu-	8rcc	.	.	.
!	!	!	!	!	!	!	!LO:SIC:v:t=custos ee	!	!	!
.	.	.	.	.	.	.	8dd\	.	.	.
!	!	!	!	!	!	!	!LO:LB:g=original	!	!	!
=38	=38	=38	=38	=38	=38	=38	=38	=38	=38	=38
1ryy	1ryy	1ryy	1ryy	1ryy	4g\	-ia	4ee\	.	1ryy	1ryy
.	.	.	.	.	8rg	.	8ra	.	.	.
*	*	*	*	*	*	*ij	*	*	*	*
.	.	.	.	.	8g\	al-	8cc\	.	.	.
.	.	.	.	.	4.f\	-le-	4.dd\	-le-	.	.
.	.	.	.	.	8f\	-lu-	8dd\	-lu-	.	.
=39	=39	=39	=39	=39	=39	=39	=39	=39	=39	=39
1ryy	1ryy	1ryy	1ryy	1ryy	8g,<\	-ia	8ee\	-ia	1ryy	1ryy
*	*	*	*	*	*	*Xij	*	*	*	*
.	.	.	.	.	8e\	al-	8g\	al-	.	.
.	.	.	.	.	8e\	-le-	8g\	-le-	.	.
.	.	.	.	.	8e\	-lu-	16a\LL	-lu-	.	.
.	.	.	.	.	.	.	16b\JJ	.	.	.
!	!	!	!	!	!LO:LB:g=original	!	!	!	!	!
.	.	.	.	.	4e\	-ja	16cc\LL	-ia	.	.
.	.	.	.	.	.	.	16b\	.	.	.
.	.	.	.	.	.	.	16cc\	.	.	.
.	.	.	.	.	.	.	16dd\JJ	.	.	.
.	.	.	.	.	8re	.	16cc\LL	.	.	.
.	.	.	.	.	.	.	16dd\	.	.	.
.	.	.	.	.	8e\	al-	16cc\	.	.	.
.	.	.	.	.	.	.	16b\JJ	.	.	.
=40	=40	=40	=40	=40	=40	=40	=40	=40	=40	=40
1ryy	1ryy	1ryy	1ryy	1ryy	4f#X\	-le-	16a\LL	.	1ryy	1ryy
.	.	.	.	.	.	.	16g\	.	.	.
.	.	.	.	.	.	.	16a\	.	.	.
.	.	.	.	.	.	.	16b\JJ	.	.	.
.	.	.	.	.	4f#\	-lu-	16a\LL	.	.	.
.	.	.	.	.	.	.	16a\	.	.	.
.	.	.	.	.	.	.	16b\	.	.	.
.	.	.	.	.	.	.	16cc\JJ	.	.	.
.	.	.	.	.	4f#X\	-ia	16dd\LL	.	.	.
.	.	.	.	.	.	.	16cc\	.	.	.
.	.	.	.	.	.	.	16dd\	.	.	.
.	.	.	.	.	.	.	16ee\JJ	.	.	.
.	.	.	.	.	8re	.	16dd\LL	.	.	.
.	.	.	.	.	.	.	16ee\	.	.	.
*	*	*	*	*	*	*ij	*	*	*	*
.	.	.	.	.	8f#X\	al-	16dd\	.	.	.
.	.	.	.	.	.	.	16cc\JJ	.	.	.
=41	=41	=41	=41	=41	=41	=41	=41	=41	=41	=41
1ryy	1ryy	1ryy	1ryy	1ryy	4g\	-le-	16b\LL	.	1ryy	1ryy
.	.	.	.	.	.	.	16a\	.	.	.
.	.	.	.	.	.	.	16b\	.	.	.
.	.	.	.	.	.	.	16cc\JJ	.	.	.
.	.	.	.	.	4g\	-lu-	16b\LL	.	.	.
.	.	.	.	.	.	.	16b\	.	.	.
.	.	.	.	.	.	.	16cc\	.	.	.
.	.	.	.	.	.	.	16dd\JJ	.	.	.
.	.	.	.	.	4g\	-ia	16ee\LL	.	.	.
*	*	*	*	*	*	*Xij	*	*	*	*
.	.	.	.	.	.	.	16dd\	.	.	.
.	.	.	.	.	.	.	16ee\	.	.	.
.	.	.	.	.	.	.	16ff\JJ	.	.	.
.	.	.	.	.	16r	.	16ee\LL	.	.	.
.	.	.	.	.	16e\LL	al-	16ff\	.	.	.
!	!	!	!	!	!LO:N:acc=-	!	!	!	!	!
.	.	.	.	.	16fn\	.	16ee\	.	.	.
.	.	.	.	.	16g\JJ	.	16dd\JJ	.	.	.
!	!	!	!	!	!	!	!LO:LB:g=original	!	!	!
=42	=42	=42	=42	=42	=42	=42	=42	=42	=42	=42
1ryy	1ryy	1ryy	1ryy	1ryy	16a\LL	.	4cc\	.	1ryy	1ryy
.	.	.	.	.	16g\	.	.	.	.	.
.	.	.	.	.	16a\	.	.	.	.	.
.	.	.	.	.	16b\JJ	.	.	.	.	.
.	.	.	.	.	16a\LL	.	8ra	.	.	.
.	.	.	.	.	16b\	.	.	.	.	.
.	.	.	.	.	16a\	.	8cc\	.	.	.
.	.	.	.	.	16g\JJ	.	.	.	.	.
.	.	.	.	.	4a\	.	16ff\LL	.	.	.
.	.	.	.	.	.	.	16ee\	.	.	.
.	.	.	.	.	.	.	16ff\	.	.	.
.	.	.	.	.	.	.	16gg\JJ	.	.	.
.	.	.	.	.	8r	.	16ff\LL	.	.	.
.	.	.	.	.	.	.	16gg\	.	.	.
.	.	.	.	.	8a\	.	16ff\	.	.	.
.	.	.	.	.	.	.	16ee\JJ	.	.	.
=43	=43	=43	=43	=43	=43	=43	=43	=43	=43	=43
1ryy	1ryy	1ryy	1ryy	1ryy	16bn\LL	.	4dd\	.	1ryy	1ryy
.	.	.	.	.	16a\	.	.	.	.	.
.	.	.	.	.	16b\	.	.	.	.	.
.	.	.	.	.	16cc\JJ	.	.	.	.	.
.	.	.	.	.	16b\LL	.	8ra	.	.	.
.	.	.	.	.	16cc\	.	.	.	.	.
.	.	.	.	.	16b\	.	8dd\	.	.	.
.	.	.	.	.	16a\JJ	.	.	.	.	.
.	.	.	.	.	4g\	.	16ee\LL	.	.	.
.	.	.	.	.	.	.	16dd\	.	.	.
.	.	.	.	.	.	.	16ee\	.	.	.
.	.	.	.	.	.	.	16ff\JJ	.	.	.
.	.	.	.	.	8r	.	16ee\LL	.	.	.
.	.	.	.	.	.	.	16ff\	.	.	.
.	.	.	.	.	8g\	.	16ee\	.	.	.
.	.	.	.	.	.	.	16dd\JJ	.	.	.
=44	=44	=44	=44	=44	=44	=44	=44	=44	=44	=44
1ryy	1ryy	1ryy	1ryy	1ryy	8e\L	.	8cc\	.	1ryy	1ryy
.	.	.	.	.	8a\J	.	8ff\	al-	.	.
.	.	.	.	.	8g\	le-	8.dd\	-le-	.	.
.	.	.	.	.	8g\	-lu-	.	.	.	.
.	.	.	.	.	.	.	16dd\	-lu-	.	.
!	!	!	!	!	!LO:LB:g=original	!	!	!	!	!
.	.	.	.	.	4g\	-ja	16ee\LL	-ja	.	.
.	.	.	.	.	.	.	16dd\	.	.	.
.	.	.	.	.	.	.	16ee\	.	.	.
.	.	.	.	.	.	.	16ff\JJ	.	.	.
.	.	.	.	.	8r	.	16ee\LL	.	.	.
.	.	.	.	.	.	.	16ff\	.	.	.
.	.	.	.	.	(8g\	al-	16ee\	.	.	.
.	.	.	.	.	.	.	16dd\JJ	.	.	.
=45	=45	=45	=45	=45	=45	=45	=45	=45	=45	=45
1ryy	1ryy	1ryy	1ryy	1ryy	8e\L)	.	8cc,<\	.	1ryy	1ryy
.	.	.	.	.	8a\J	.	8ff\	al-	.	.
.	.	.	.	.	8g\	-le-	8.dd\	-le-	.	.
.	.	.	.	.	8g\	-lu-	.	.	.	.
!	!	!	!	!	!	!	!LO:SIC:v:t=custos ee	!	!	!
.	.	.	.	.	.	.	16dd\	-lu-	.	.
!	!	!	!	!	!LO:N:vis=8	!	!LO:LB:g=original	!	!	!
.	.	.	.	.	4g\	-ia	4ee\	-ja.	.	.
!	!	!	!	!	!LO:TX:b:t=alleluia Da Capo	!	!LO:TX:b:t=Alleluia Da Capo	!	!	!
!	!	!	!	!	!LO:TX:t=P:problem:fermata nad tekstem	!	!LO:TX:t=P:problem:fermata nad tekstem	!	!	!
.	.	.	.	.	4ryy	.	4r	.	.	.
==	==	==	==	==	==	==	==	==	==	==
*-	*-	*-	*-	*-	*-	*-	*-	*-	*-	*-
!!!system-decoration: [g1][g2][g3]s9
!!!RDF**kern: > = above
!!!RDF**kern: < = below
!!!AIN: 1 alto 2 empty 1 tenor 2 tuba 2 violn 1 vox
!!!ENC: Andrzej Kubiczek
!!!END: 2021-04-08
!!!ENC: Tomasz Grochalski
!!!END: 2021-03-17
